!!!OTL: Das jagen, das ist mein Leben! (1-23), S. 63
!!!id: K0097
**kern
*clefG2
*k[f#]
*G:
{4d
=1
4.g
8f#
8g
8b
=2
4a
4g
8a
8a
=3
4b
4g}
=4
{8g
8a
=5
4.b
8a
4b
=6
4.cc
8b
4cc
=7
4.dd
8ee
8dd
8cc
=8
4b}
4r
=9
{8g
8b
=10
4dd
4dd
8dd
8cc
=11
4.b
8a
4b
=12
4cc
4cc
8cc
8b
=13
4.a
8g
4a}
=14
{4b
4b
4a
=15
4b}
4r
=16
{8g
8b
=17
4dd
4dd
4cc
=18
4b}
4r
=19
{8g
8b
=20
4dd
4dd
8dd
8cc
=21
4.b
8a
4b}
=22
{4cc
4cc
8cc
8b
=23
4.a
8g}
=24
{4a
=25
4b
4b
4a
=26
4b}
4r
=27
{8g
8b
=28
4dd
4dd
4cc
=29
4b}
4r
==
*-
!!!minrhy: 8
!!!meters: 3/4 ]  ZZ[9
!!!cut: Das jagen, das ist mein Leben! (1-23), S. 63
!!!reg: Luxemburg
!!!trd: KINTZELE, Guillaume: An der Ucht, Bd. 1, Luxemburg 1926
!!!rhy1: X_  X_.XXX  X_X_XX  X_X_
!!!rhy2: XX  X_.XX_  X_.XX_  X_.XXX  X_0_
!!!key: K0097  08  G 3/4 ]  ZZ[9
!!!mod: HEPTATONIK IONISCH]  AMBITUS[9
!!!kad: 132333133
!!!akz: 123_3453_5342_33_53_53_42_33_53_
!!!fot: 'a__as"b__c__bw_bv_d__e__bw_
!!!for: 'a__b__c__d__dv_cw_cw_dv_dv_
!!!fok: 'Ma_^a_^a_-__^a_^a_\__/__^a_
!! PHRAS[VORWIEGEND AUFTAKTIG]
!!!fkt: yyy
!!!bem: in der Quelle mit einer 2. Stimme versehen
!! KINTZELE
!! PR[12] 2K[6] 2G[15] 3K[3] 3G[0] 4A[0] 4Ü[0] 5A[0] 6K[6] 6G[6]
!! 7K[0] 7G[0] 8A[0] MEHR[0] SI[37] ABS[65] SR[22] SP[15]
!! ST[16] 2k[12] 2g[22] 3k[6] 3g[3] 4d[2] 4ü[0] 5d[3] 6k[0] 6g[3]
!! 7k[0] 7g[0] 8d[0] mehr[0] si[51] dm[-14] sr[34] sp[17]
!! 1F[10] 2F[49] 3F[26] 4F[0] LF[0] 2P[10] 3P[6] 4P[0] TRI[0] DF[5] AB[70]
!! TF[0] U3K[0] U3[0] U4[0] U4Ü[0] U5[0] U6K[0] U6[0] U7K[0] U7[0]
!! N1[0] N2K[0] N2[6] N3K[0] N3[6] N4[3] N4Ü[0] N5[24] N6K[0] N6[12]
!!!n7k: 0] N7[15] O1[18] O2K[0] O2[9] O3K[0] O3[3] HÖ[3
